X:417
T:No Longer Can I Stay
N:"Slow" "collected by J.O'Neill"
N:Irish title: ni .tig liom do fan nios fuide
B:O'Neill's 417
Z:Transcribed by henrik.norbeck@mailbox.swipnet.se
M:3/4
L:1/8
K:Aphr
A/G/ FE|D2 de fd|cA GF GA|B2 AG FE|D3 Hx :|
|: 3A/B/c/ dd|d2 ef ec|ed2 f.e dA|GF D.E.F.G|A3 :|
